packages/core/src/svgs/tokens/mono/DMD.svg

<svg width="24" height="24" viewBox="0 0 24 24" fill="none" xmlns="http://www.w3.org/2000/svg">
<path d="M21.8388 13.7927C22.0584 12.581 22.0536 11.3391 21.8245 10.1292L18.2496 9.49796V14.4858L21.8388 13.7927ZM21.6608 14.5902L18.3953 15.2171V15.2232L19.6697 18.4168C20.6045 17.3018 21.2841 15.9956 21.6608 14.5902ZM19.1015 19.0393L19.0728 19.068L15.643 17.6962L17.7353 15.6032L19.1015 19.0393ZM18.4609 19.6318C17.3637 20.5626 16.0781 21.245 14.6924 21.6322L15.2687 18.35L18.4609 19.6318ZM13.8956 21.8192L14.5311 18.2494H9.55012L10.2451 21.8454C11.4536 22.0596 12.6903 22.0503 13.8956 21.8192ZM9.44834 21.6704L8.8127 18.3568L5.56226 19.6512C6.69223 20.6044 8.02003 21.2946 9.44951 21.6716L9.44834 21.6704ZM4.38171 18.4768L5.67914 15.2289L2.35433 14.6457C2.74111 16.056 3.43324 17.3639 4.38171 18.4768ZM2.17183 13.8508C1.94657 12.6479 1.94275 11.4141 2.16059 10.2097L5.75038 9.50977V14.492L2.17183 13.8508ZM2.33807 9.41426L5.67351 8.77299L4.38421 5.52005C3.42082 6.64963 2.72178 7.98004 2.33807 9.41426ZM4.94856 4.91008L8.42023 6.3L6.33285 8.39239L4.94856 4.91008ZM5.56414 4.34637C6.67482 3.41036 7.97654 2.72825 9.37834 2.34773L8.8002 5.64004L5.56414 4.34637ZM10.1683 2.16774L9.537 5.78254H14.5255L13.8275 2.16711C13.2246 2.05591 12.613 2.00006 12 2.00024C11.3744 2.00024 10.7619 2.05774 10.1683 2.16774ZM14.6243 2.34836L15.2567 5.6338L18.4579 4.36512C17.3433 3.42022 16.0342 2.73173 14.6243 2.34836ZM19.0665 4.92446L19.1046 4.96321L17.736 8.39239L15.643 6.3L19.0665 4.92446ZM19.6627 5.57442C20.5837 6.67064 21.258 7.95233 21.6395 9.3323L18.3835 8.76112L19.6627 5.57442ZM12.0344 11.1628L14.3705 6.375H9.70397L12.0344 11.1628ZM6.37534 9.66478V14.3315L11.2019 11.9954L6.37534 9.66478ZM17.2423 8.9511L15.0779 6.79311L12.8781 11.151L17.2423 8.9511ZM17.6248 14.3315V9.66478L12.8606 11.9954L17.6248 14.3315ZM8.43149 17.7019L8.42772 17.6976L8.4321 17.6962L8.43149 17.7019ZM8.42772 17.6976L4.94793 19.0811L6.3391 15.6095L8.42772 17.6976ZM17.2423 15.0446L17.2385 15.0427L17.2423 15.0389V15.0446ZM12.8844 12.8446L17.2385 15.0427L15.0842 17.2025L12.8844 12.8446ZM12.0344 12.8215L9.70397 17.6244H14.3705L12.0344 12.8215ZM6.83282 8.9511L11.1901 11.151L8.9902 6.79311L6.83282 8.9511ZM6.83282 15.0383L6.83657 15.0427L6.83282 15.0446V15.0383ZM6.83657 15.0427L8.99083 17.2025L11.1907 12.8452L6.83657 15.0427Z" fill="white"/>
</svg>

<svg xmlns="http://www.w3.org/2000/svg" width="24" height="24" fill="none" viewBox="0 0 24 24">
    <path fill="#fff" d="M21.839 13.793a10 10 0 0 0-.014-3.664l-3.575-.631v4.988zm-.178.797-3.266.627v.006l1.275 3.194a10 10 0 0 0 1.99-3.827m-2.56 4.45-.028.028-3.43-1.372 2.092-2.093zm-.64.592a10 10 0 0 1-3.769 2l.577-3.282zm-4.565 2.187.635-3.57H9.55l.694 3.596a10.1 10.1 0 0 0 3.65-.026m-4.448-.149-.635-3.313-3.25 1.294a10 10 0 0 0 3.887 2.02zM4.38 18.477l1.297-3.248-3.325-.583a10 10 0 0 0 2.028 3.83M2.17 13.85a10 10 0 0 1-.011-3.641l3.59-.7v4.982zm.166-4.437 3.336-.641-1.29-3.253a10 10 0 0 0-2.046 3.894m2.61-4.504L8.42 6.3 6.333 8.392zm.616-.564a10 10 0 0 1 3.814-1.998L8.8 5.64zm4.604-2.178-.631 3.615h4.988l-.697-3.616a10 10 0 0 0-3.66 0m4.456.18.633 3.286 3.2-1.269a10 10 0 0 0-3.833-2.017m4.443 2.576.038.04-1.369 3.428-2.091-2.09zm.596.65a10 10 0 0 1 1.977 3.758l-3.256-.57zm-7.629 5.589 2.336-4.788H9.705zM6.375 9.665v4.667l4.827-2.337zm10.867-.714-2.164-2.158-2.2 4.358zm.383 5.38V9.666l-4.764 2.33zm-9.194 3.37-.003-.003.004-.002zm-.003-.003-3.48 1.383 1.391-3.471zm8.814-2.653-.004-.002.004-.004zm-4.358-2.2 4.354 2.198-2.154 2.16zm-.85-.024-2.33 4.803h4.666zm-5.201-3.87 4.357 2.2-2.2-4.358zm0 6.087.004.005-.004.002zm.004.005 2.154 2.16 2.2-4.358z"/>
</svg>
